X:1
T:Exaudi  Domine vocem meam
T:Josquin des Prez
T:Source : Bicinia---Tomus I---Wittemberg---G.Rhau---1545. Editor : André Vierendeels (18/06/17).
T:Notes : Original clefs :   C1, C3 Original note values have been halved Editorial accidentals above the staff Square brackets indicate ligatures  
T:#
T:Exaudi  Domine vocem meam
T:©
T:©
T:©
T:©
C:Josquin des Prez
Z:©
%%score [ 1 2 ]
L:1/8
Q:1/4=120
M:2/2
K:C
V:1 treble nm="Soprano" snm="S"
V:2 treble-8 nm="Tenor" snm="T"
V:1
 E4 E4 | E4 F4 | F4 E4 | z2 A4 GF | G4 A4 | D4 E4- | E4 D4 | z2 G4 FE | F4 G4 | C4 D4- | D4 C4 | %11
w: Ex- au-|di, Do-|mi- ne,|vo- * *||cem me-|* am,|qua _ _|cla- *|ma- *|* vi|
 F4 F4 | E4 A4 | A4 G4 | F6 ED | C8 | z4 G4 | A4 B4 | c4 A4 | B4 G4- | G2 E2 E4 | c6 c2 | c4 A4 | %23
w: ad te,|mi- se-|re- re|me- * *|i,|ad-|iu- tor|me- us|e- *|* * sto,|ne de-|re- lin-|
 d6 B2 | B4 z4 | c6 c2 | c2 A2 d4- | d2 B2 B4 | z4 B4 | c6 B2 | A2 G2 A4 | B6 G2 | G4 c4- | %33
w: * quas|me,|necc- que|de- spi- ci-|* as me,|De-|us sa-|lu- * ta-|ris me-|us, le-|
 c2 B2 A2 G2 | F2 E2 G2 F2- | F2 ED C4 | c6 B2 | A2 G2 F2 E2 | A2 A2 G4 | z2 G2 A2 c2 | %40
w: * gem po- ne|mi- hi, Do- mi-|* * * ne,|in vi-|a tu- a di-|ri- ge me,|in se- mi-|
 B2 A2 G2 F2 | E2 B2 c2 B2 | A2 c3 B A2- | A2 G2 A4- | A4 z2 F2 | G2 _B2 A2 G2 | F2 E2 D2 F2 | %47
w: ta re- cta pro-|pter in- i- mi-|cos me- * *|* * os,|_ ex-|pe- cta Do- mi-|num, vi- ri- li-|
 E2 G2 F2 E2- | E2 D2 E4 | z2 B2 c2 B2 | A2 c3 B A2- | A2 G2 A2 E2 | z2 B2 c2 B2 | A2 c3 B A2- | %54
w: ter a- * *|* * ge,|et con- for-|te- * * *|* tur tu- um,|et su- sti-|ne Do- * *|
"^#" A2 G2 !fermata!A4 |] %55
w: * mi num.|
V:2
 z8 | z8 | A4 A4 | A4 B4 | B4 A4 | z2 d4 cB | A4 B4 | G4 A4- | A4 G4 | z2 c4 BA | B4 c4 | d4 d4 | %12
w: ||Ex- au-|di, Do-|mi- ne,|vo- * *||cem me-|* am,|qua _ _|cla- ma-|vi ad|
 c4 c4 | d4 e4- | e2 dc d4 | e8- | e8 | c4 d4 | e4 f4 | d4 e4 | c6 A2 | A4 f4- | f2 f2 f4 | %23
w: te, mi-|se re-|* re _ me-|i,|_|ad- iu-|tor me-|us e-|* sto,|ne de-|* re- lin-|
 d4 g4- | g2 e2 e4 | z4 f4- | f2 f2 f2 d2 | g6 e2 | e4 z4 | e4 f4- | f2 e2 d2 c2 | d4 e4- | %32
w: |* quas me,|nec-|* que de- spi-|ci- as|me,|De- us|_ sa- lu- ta-|ris me-|
 e2 c2 c4 | f6 e2 | d2 c2 B2 A2 | B2 B2 A4- | A4 f4 | f2 e2 d2 c2 | f2 f2 e4- | e4 z2 c2 | %40
w: * * us,|le- gem|po- ne mi- hi,|Do- mi- ne,|_ in|vi- a tu- a,|di- ri- ge|_ in|
 d2 f2 e2 d2 | c2 B2 A2 e2 | f2 e2 c2 d2 | B4 A4 | z2 c2 d2 f2 | e2 d2 c2 B2 | A2 c2 B2 A2 | %47
w: se- mi- ta re-|cta pro- pter in-|i- mi- cos me-|* os,|ex- pec- ta,|Do- mi- num, vi-|ri- li ter a-|
 c3 B A2 G2 | F4 E4- | E4 z2 e2 | f2 e2 c2 d2 | B4 A3 G | E4 z2 e2 | f2 e2 c2 d2 | %54
w: |* ge,|_ et|con- for- te- tur|cor tu- *|um, et|su- sti- ne Do-|
 B4 !fermata!A4 |] %55
w: mi- num.|

